X: 59
T:Knick-Knack
% Nottingham Music Database
S:Eric Foxley
M:4/4
L:1/4
K:G
P:A
c/2B/2A/2|"G"G/2F/2G/2A/2 B/2c/2B/2A/2|"G"G/2F/2G/2A/2 B/2A/2B/2c/2|\
"Am"d/2c/2B/2c/2 A/2c/2B/2A/2|"D7"d/2c/2B/2c/2 A/2c/2B/2A/2|
"G"G/2F/2G/2A/2 "f#"B/2c/2B/2A/2|"Em""Em"G/2F/2G/2A/2 "D""Em/d"B/2A/2B/2c/2|\
"C""Am/c"d/2c/2B/2c/2 "D7""D7"A/2c/2B/2A/2|"G"G/2A/2B/2A/2 G/2:|
P:B
A/2B/2c/2|"G"d/2e/2d/2c/2 B/2c/2d/2B/2|"G"g/2B/2d/2B/2 "G"g/2B/2d/2B/2|
"Am"d/2c/2B/2c/2 A/2B/2c/2A/2|"D7"d/2c/2B/2c/2 A/2B/2c/2A/2|\
"G"d/2e/2d/2c/2 B/2c/2d/2B/2|
"Em"g/2B/2d/2B/2 "G"g/2B/2d/2B/2|"C""Am"d/2c/2B/2c/2 "D7""D7"A/2c/2B/2A/2|\
"G"G/2A/2B/2A/2 G/2:|<end>
<start>
